X: 2727
T: Banks Of Newfoundland, The
R: jig
M: 6/8
K: Gmajor
A|~B3 AGE|GBd g2e|ded B2A|BGE EGA|
BAG AGE|GBd g2e|ded B2A|BGF G2:|
A|B2g gfg|e2a aga|bge dBG|~B3 AGA|
B2g gfg|e2a aga|bge dBA|BGF G2A|
B2g gfg|e2a aga|bge dBG|~B3 AGA|
BAG AGE|GBd g2e|ded B2A|BGF G2||

